X:1
T:Someday My Prince Will Come
C:1937 - Frank Churchill / Larry Morey
Z:Copyright © www.realbook.site
L:1/4
M:3/4
I:linebreak $
K:Bb
V:1 treble 
V:1
"Bb" F3 |"D7#5" B2 ^F |"Ebmaj7" A2 G |"G7#5" G3 |$"Cm7" G3 |"G7#5" e2 =B |"Cm7" d2 c |"F7" c d e |$ %8
"Dm7" f f f |"C#dim7" a a a |"Cm7" f3- |"F7" f d e |$"Dm7" f f f |"C#dim7" a a a |"Cm7" f3- | %15
"F7" f z z ||$"Bbmaj7" f2 f |"D7#5" c'2 b |"Eb7" =B3/2 c/ B/c/ |"Edim7" a2 g |$ %28
"Bbmaj7/F" f f f |"G7" f2 f |"Cm7" f3- |"F7" f2 z |] %32
